!!!OTL: Der Nachtjaeger Es blast ein Jaegerlein wohl in sein Horn,
!!!ARE: Europa, Mitteleuropa, Deutschland / France, Lothringen
!!!YOR: 6, S. 169
!!    1926 gedruckt in Heidelberg
!!!SCT: Q0133F
!!!YEM: Copyright 1995, estate of Helmut Schaffrath.
**kern
*ICvox
*Ivox
*M2/4
*k[f#c#]
*D:
{8a
=1
4a
8dd
8b
=2
8.a
16b
8a
8f#
=3
4g
8g
8b
=4
4a
8r}
{8a
=5
4a
8dd
8b
=6
8.a
16b
8a
8f#
=7
4g
8g
8b
=8
4a
8r}
{8f#
=9
8f#
8e
8f#
8a
=10
8g
8f#
8e}
{8d
=11
8f#
8e
8f#
8a
=12
8g
8f#
8e
8d
=13
4a
4a
=14
4f#
8r}
==
!!!AGN: Ballade, Jagd, Flucht, Vergewaltigung, Tod
!! Anhaengsel an der vierten Zeile.
!!!ONB: ESAC (Essen Associative Code) Database: BALLADE
!!!AMT: simple duple
!!!AIN: vox
!!!EED: Helmut Schaffrath
!!!EEV: 1.0
*-
